X:549
T:N'Uviu nun me caso
R:Fandangu
C:Tradicional
S:Msica Tradicional Asturiana, (C) Tello & Tito. Asturies, 2001.
S:http://pagina.de/MusTradAst <telloytito@asturies.org>
A:Asturies
Z:ByD IDEA
M:3/8
L:1/8
Q:1/8=180
K:C
|DED|C3|DED|C3|DEF|G2 F|G2 F|E3|
DED|C3|DED|C3|DEF|G2 F|EDE|F2 E|
DEF|E2 D|CDE|F2 E|DEF|E2 D|C3|
